X:7327
T:The Shetland Fiddler
O:england
R:Reel
M:C|
L:1/8
Q:300
S:Crystal Plohman (as taught at 10/97 Mark O'Connor Fiddle Camp)
N:Originally posted as "Left-Handed Fiddler" in error
N:Ornament beginning line two is a slide
K:D
(vA2|{Bc}d2f)(d Ad~fe)|def(g af)df|~e2(ge) Bege|cde(f g/f/e)cA|
(~d2f)(d Ad~fe)|def(g af)de|(3(fga) fd (3(fga) fd|~Bge(c d2):|
|:vcd|eAfA gAaA|faa(f ~gf)ed|AEBE cEdE|efe(d ~cA)Bc|
dAeA fAgA|faa(f ~gf)ed|(3(fga) fd (3(fga) fd|~Bge(c d2):|


